X:15635
T:Smedens f\o{}rste skottish
S:Charlie Menzies
R:Schottische
O:Denmark
M:4/4
C:e. B\o{}rge Christensen
K:G
D>G B>A G2G2|G>B d>c B2B2|A>B c>A F>E F>F\
|1 G>F G>E D2z2:|2 G2G2 G2z2 :|
e2c2 e2c2 | d>B G>B d2z2 | c>B A>G F>D E>F \
|1 g>F G>B d2 z2 :|2 G2 G2 G2 :|
